src/lib/packages/icons/src/assets/filled/pizza-slice.svg

<svg width="24" height="24" viewBox="0 0 24 24" fill="none" xmlns="http://www.w3.org/2000/svg">
<path d="M16.3401 19.14C16.4901 19.18 16.5701 19.33 16.5201 19.48C16.1401 20.71 14.7801 21.32 13.5901 20.82C11.3201 19.87 9.20007 18.47 7.36007 16.63C5.52007 14.79 4.1201 12.66 3.1701 10.4C2.6701 9.20998 3.2801 7.84999 4.5101 7.46999C4.6601 7.41999 4.81009 7.50998 4.85009 7.64998C5.65009 10.36 7.12009 12.85 9.13009 14.86C11.1401 16.87 13.6201 18.34 16.3401 19.14ZM20.9101 5.38999C20.9101 5.38999 17.7001 15.66 17.1201 17.5C17.0701 17.66 16.9001 17.75 16.7401 17.7C14.2801 16.97 12.0201 15.63 10.1901 13.8C8.36009 11.97 7.02009 9.71999 6.29009 7.25998C6.24009 7.09999 6.33008 6.93 6.49008 6.88C8.33008 6.3 18.6001 3.07999 18.6001 3.07999C20.0201 2.63999 21.3501 3.97 20.9001 5.38L20.9101 5.38999ZM12.2701 8.99999C12.2701 8.30999 11.7101 7.74999 11.0201 7.74999C10.3301 7.74999 9.77007 8.30999 9.77007 8.99999C9.77007 9.68999 10.3401 10.25 11.0201 10.25C11.7001 10.25 12.2701 9.68999 12.2701 8.99999ZM16.0201 13C16.0201 12.45 15.5701 12 15.0201 12C14.4701 12 14.0201 12.45 14.0201 13C14.0201 13.55 14.4701 14 15.0201 14C15.5701 14 16.0201 13.55 16.0201 13ZM16.7701 7.99999C16.7701 7.58999 16.4401 7.24999 16.0201 7.24999C15.6101 7.24999 15.2701 7.58999 15.2701 7.99999C15.2701 8.40999 15.6101 8.74999 16.0201 8.74999C16.4301 8.74999 16.7701 8.40999 16.7701 7.99999Z" fill="currentColor"/>
</svg>

<svg xmlns="http://www.w3.org/2000/svg" width="24" height="24" fill="none"><path fill="currentColor" d="M16.34 19.14c.15.04.23.19.18.34-.38 1.23-1.74 1.84-2.93 1.34-2.27-.95-4.39-2.35-6.23-4.19a19.491 19.491 0 0 1-4.19-6.23c-.5-1.19.11-2.55 1.34-2.93.15-.05.3.04.34.18a16.967 16.967 0 0 0 11.49 11.49Zm4.57-13.75S17.7 15.66 17.12 17.5c-.05.16-.22.25-.38.2A15.52 15.52 0 0 1 6.29 7.26c-.05-.16.04-.33.2-.38 1.84-.58 12.11-3.8 12.11-3.8 1.42-.44 2.75.89 2.3 2.3l.01.01ZM12.27 9a1.25 1.25 0 0 0-2.5 0c0 .69.57 1.25 1.25 1.25s1.25-.56 1.25-1.25Zm3.75 4c0-.55-.45-1-1-1s-1 .45-1 1 .45 1 1 1 1-.45 1-1Zm.75-5a.749.749 0 1 0-1.498-.002A.749.749 0 0 0 16.77 8Z"/></svg>
